MonoIcons/scalable/status/user-away-symbolic.svg

<?xml version="1.0" encoding="UTF-8"?>
<svg height="16px" viewBox="0 0 16 16" width="16px" xmlns="http://www.w3.org/2000/svg">
    <path d="m 3 1 c -1.644531 0 -3 1.355469 -3 3 v 6 c 0 1.644531 1.355469 3 3 3 h 1 v 3 l 3 -3 h 6 c 1.644531 0 3 -1.355469 3 -3 v -6 c 0 -1.644531 -1.355469 -3 -3 -3 z m 5 3 h 1 v 0.007812 c 0.265625 -0.003906 0.519531 0.101563 0.707031 0.285157 l 2 2 c 0.390625 0.390625 0.390625 1.023437 0 1.414062 l -2 2 c -0.1875 0.183594 -0.441406 0.289063 -0.707031 0.289063 v 0.003906 h -1 v -2 h -4 v -2 h 4 z m 0 0" fill="#2e3436"/>
</svg>

<svg width="16" height="16" viewBox="0 0 16 16" fill="none" xmlns="http://www.w3.org/2000/svg">
<path d="M3 1C1.35547 1 0 2.35547 0 4V10C0 11.6445 1.35547 13 3 13H4V16L7 13H13C14.6445 13 16 11.6445 16 10V4C16 2.35547 14.6445 1 13 1H3ZM8 4H9V4.00781C9.26562 4.00391 9.51953 4.10938 9.70703 4.29297L11.707 6.29297C12.0977 6.68359 12.0977 7.31641 11.707 7.70703L9.70703 9.70703C9.51953 9.89063 9.26562 9.99609 9 9.99609V10H8V8H4V6H8V4Z" fill="#2E3436"/>
</svg>
